**kern	**kern	**dynam
*part1	*part1	*part1
*staff2	*staff1	*
*I"Piano	*	*
*clefF4	*clefG2	*
*k[f#c#g#]	*k[f#c#g#]	*
=1	=1	=1
4.d 4.f#	4.a 4.ff#	.
8c# 8e	8a 8ee	.
=	=	=
*	*^	*
2cn 2f#	4ee	2a	.
.	4dd#X	.	.
=	=	=	=
2B 2f#	(8aaL	2a 2dd#X	.
.	8ff#	.	.
.	8ee	.	.
.	8dd#XJ)	.	.
*	*v	*v	*
=	=	=
4.E#X	4.g# 4.b 4.ddn	.
8En	8c# 8f# 8a#X	.
=	=	=
4D 4B	4f# 4b	.
4C# 4A#X	4e 4f# 4cc#	.
=	=	=
4BB 4B	4d 4f# 4dd	.
4cn 4f#	4a 4dd#X	.
=	=	=
4r	4r	.
[4B [4f#	[4an [4ddn [4ff#	.
=	=	=
4B] 4f#]	4a] 4dd] 4ff#]	.
4E	4d 4e 4g#	>
=	=	=
8AA	8c# 8a	]
8r	8ee'L	.
8r	8cc#'	.
8e'	8g#'J	.
=	=	=
*-	*-	*-
!!!system-decoration: {(s1,s2)}
